X: 2
T: The Fishermans Lilt
T: played a semi-tone higher
M: 4/4
L: 1/8
K:Dmaj
AF "Fm"!roll!F2 ABde|fedc dB "Bm"!roll!B2|AF "Fm"!roll!F2 ABde|1 fedc "D"d2 dB:|]2 fedc d2 de||
fa"A" !roll!a2 "Bm"bafb|afef dB !roll!B2|fa"A" !roll!a2 fb"Bm" !roll!b2|abc'a b2 ba|
fa"A" !roll!a2 "Bm"bafb|afef dB !roll!B2|AF"Fm" !roll!F2 ABde|1fedc "D"d2 de:|]2fedc "D" d2 dB|]


